X:1
T:Gan Ainm
Z: Jack Campin tradtunes 2004-5-28
M:4/4
L:1/8
K:E Minor
ED |"Em"B,<EE>F G>E`G<B|"D"A>G`F>E D>EF<D|"Em"B,<EE>F   G>E`G<B|   e>dB<d "G" d<egf |
    "Em"e>f`e>d B>c`d<B|"D"A>G`F>E D>EF<D|"Em"B,<EE>F   G>E`G<B|"D"A>FD<F "Em"E2   :|
F<A|"Em"B<E`E>D B,<EE>D|   B,<ED<F G>EG<B|"D" A>F`E>D   B,<DD>E|   F>DF>G     A>FG<A|
    "Em"B<E`E>D B,<EE>D|   B,<ED<F G>EG<A|    B<e d/e/f e>d`BG |"D"A>FD<F "Em"E2   :|
